X:1
T:Haven, CM
T:Haven, CM
T:Thomas Hastings (1784-1872)
T:Public Domain Courtesy of the Cyber Hymnal™
C:Thomas Hastings (1784-1872)
Z:Public Domain
Z:Courtesy of the Cyber Hymnal™
%%score ( 1 2 ) ( 3 4 )
L:1/8
Q:1/4=160
M:4/4
K:E
V:1 treble 
V:2 treble 
V:3 bass 
V:4 bass 
V:1
 [EG]4 [EG]3 [DF] | E4 [EB]4 | [EA]4 ([EG]2 [DF]2) | [EG]6 [EG]2 | F4 (B3 c) | [FB]4 [E^A]4 | %6
 [DB]6 [FA]2 | [EG]4 [EG]3 [DF] | E4 [EB]4 | [EA]4 ([EG]2 [DF]2) | [EG]6 [EB]2 | [Ec]6 [Ec]2 | %12
 (B2 G2) [DF]4 | E8 |] %14
V:2
 x8 | E4 x4 | x8 | x8 | F4 F4 | x8 | x8 | x8 | E4 x4 | x8 | x8 | x8 | E4 x4 | E8 |] %14
V:3
 [E,B,]4 [E,B,]3 [F,B,] | [G,B,]4 [G,B,]4 | [F,C]4 [B,,B,]4 | [E,B,]6 [E,B,]2 | [D,B,]4 (D3 E) | %5
 [F,D]4 [F,C]4 | [B,,B,]6 [D,B,]2 | [E,B,]4 B,4 | [G,B,]4 [G,B,]4 | [F,C]4 [B,,B,]4 | %10
 [E,B,]6 [E,G,]2 | [A,,A,]6 [A,,A,]2 | (G,2 B,2) (B,2 A,2) | [E,G,]8 |] %14
V:4
 x8 | x8 | x8 | x8 | x4 B,,4 | x8 | x8 | x4 E,3 F, | x8 | x8 | x8 | x8 | B,,4 B,,4 | x8 |] %14

